images/synthetix_sbtc.svg

<svg height="250" viewBox="0 0 250 250" width="250" xmlns="http://www.w3.org/2000/svg" xmlns:xlink="http://www.w3.org/1999/xlink"><filter id="a" height="100%" width="100%" x="0%" y="0%"><feColorMatrix in="SourceGraphic" type="matrix" values="0 0 0 0 1 0 0 0 0 1 0 0 0 0 1 0 0 0 1 0"/></filter><mask id="b"><g filter="url(#a)"><path d="m0 0h250v250h-250z" fill-opacity=".5"/></g></mask><clipPath id="c"><path d="m0 0h250v250h-250z"/></clipPath><path d="m125 250c69.035156 0 125-55.964844 125-125s-55.964844-125-125-125-125 55.964844-125 125 55.964844 125 125 125zm0 0" fill="#6e97ff"/><g fill="#1e1a31"><path d="m149.167969 154.523438c0-4.066407.796875-7.214844 2.398437-9.449219 1.601563-2.234375 3.867188-3.351563 6.800782-3.351563 2.167968 0 3.917968.601563 5.25 1.800782 1.332031 1.199218 2.199218 2.898437 2.597656 5.101562.335937-2.601562 1.167968-4.601562 2.5-6 1.335937-1.433594 3.203125-2.152344 5.601562-2.152344 3.066406 0 5.484375 1.167969 7.25 3.5 1.734375 2.335938 2.601563 5.632813 2.601563 9.902344v13.949219h-35zm14.398437 5.800781v-6c0-1.601563-.382812-2.851563-1.148437-3.75-.769531-.902344-1.800781-1.351563-3.101563-1.351563-1.300781 0-2.332031.449219-3.101562 1.351563-.765625.898437-1.148438 2.148437-1.148438 3.75v6zm14.648438 0v-6.5c0-1.800781-.382813-3.183594-1.148438-4.152344-.765625-1-1.832031-1.5-3.199218-1.5-1.433594 0-2.535157.5-3.300782 1.5-.800781 1-1.199218 2.386719-1.199218 4.152344v6.5zm0 0"/><path d="m149.167969 139.839844v-27.699219h6.449219v10.101563h28.550781v7.5h-28.550781v10.097656zm0 0"/><path d="m166.667969 111.851562c-3.566407 0-6.683594-.683593-9.351563-2.050781-2.699218-1.398437-4.78125-3.382812-6.25-5.949219-1.464844-2.601562-2.199218-5.652343-2.199218-9.152343 0-2.730469.53125-5.183594 1.597656-7.347657 1.070312-2.167968 2.570312-3.917968 4.5-5.25 1.933594-1.335937 4.167968-2.132812 6.703125-2.402343v7.5c-2 .433593-3.566407 1.351562-4.703125 2.75-1.164063 1.367187-1.75 3.085937-1.75 5.152343 0 2.800782 1.050781 5.015626 3.152344 6.648438 2.097656 1.632812 4.867187 2.449219 8.300781 2.449219 3.398437 0 6.164062-.816407 8.296875-2.449219 2.101562-1.632812 3.152344-3.847656 3.152344-6.648438 0-2.066406-.566407-3.785156-1.699219-5.152343-1.167969-1.398438-2.75-2.316407-4.75-2.75v-7.5c2.53125.269531 4.765625 1.066406 6.699219 2.402343 1.933593 1.332032 3.433593 3.082032 4.5 5.25 1.066406 2.164063 1.597656 4.617188 1.597656 7.347657 0 3.5-.730469 6.550781-2.199219 9.152343-1.464844 2.566407-3.53125 4.550782-6.199219 5.949219-2.699218 1.367188-5.832031 2.050781-9.398437 2.050781zm0 0"/></g><g clip-path="url(#c)" mask="url(#b)"><path d="m67.851562 173.773438-10.402343-7.421876 65.429687-90.910156 10.40625 7.421875zm0 0" fill="#1e1a31" fill-rule="evenodd"/></g><path d="m101.558594 118.625h3.492187c16.078125 0 29.117188 12.992188 29.117188 29.019531 0 16.027344-13.039063 29.023438-29.117188 29.023438h-42.820312c-3.535157 0-6.398438-2.855469-6.398438-6.378907 0-3.519531 2.863281-6.375 6.398438-6.375h42.820312c9.015625 0 16.324219-7.28125 16.324219-16.269531 0-8.984375-7.308594-16.269531-16.324219-16.269531h-20.101562c-16.078125 0-29.117188-12.992188-29.117188-29.019531 0-16.027344 13.039063-29.023438 29.117188-29.023438h42.820312c3.53125 0 6.398438 2.855469 6.398438 6.375 0 3.523438-2.867188 6.378907-6.398438 6.378907h-42.820312c-9.015625 0-16.324219 7.28125-16.324219 16.269531 0 8.984375 7.308594 16.269531 16.324219 16.269531h16.605469zm0 0" fill="#1e1a31" fill-rule="evenodd"/></svg>

<svg xmlns="http://www.w3.org/2000/svg" xmlns:xlink="http://www.w3.org/1999/xlink" width="250px" height="250px" viewBox="0 0 250 250" version="1.1">
<defs>
<filter id="alpha" filterUnits="objectBoundingBox" x="0%" y="0%" width="100%" height="100%">
  <feColorMatrix type="matrix" in="SourceGraphic" values="0 0 0 0 1 0 0 0 0 1 0 0 0 0 1 0 0 0 1 0"/>
</filter>
<mask id="mask0">
  <g filter="url(#alpha)">
<rect x="0" y="0" width="250" height="250" style="fill:rgb(0%,0%,0%);fill-opacity:0.5;stroke:none;"/>
  </g>
</mask>
<clipPath id="clip1">
  <rect x="0" y="0" width="250" height="250"/>
</clipPath>
<g id="surface5" clip-path="url(#clip1)">
<path style=" stroke:none;fill-rule:evenodd;fill:rgb(11.764706%,10.196079%,19.215687%);fill-opacity:1;" d="M 67.851562 173.773438 L 57.449219 166.351562 L 122.878906 75.441406 L 133.285156 82.863281 Z M 67.851562 173.773438 "/>
</g>
</defs>
<g id="surface1">
<path style=" stroke:none;fill-rule:nonzero;fill:rgb(43.137255%,59.215689%,100%);fill-opacity:1;" d="M 125 250 C 194.035156 250 250 194.035156 250 125 C 250 55.964844 194.035156 0 125 0 C 55.964844 0 0 55.964844 0 125 C 0 194.035156 55.964844 250 125 250 Z M 125 250 "/>
<path style=" stroke:none;fill-rule:nonzero;fill:rgb(11.764706%,10.196079%,19.215687%);fill-opacity:1;" d="M 149.167969 154.523438 C 149.167969 150.457031 149.964844 147.308594 151.566406 145.074219 C 153.167969 142.839844 155.433594 141.722656 158.367188 141.722656 C 160.535156 141.722656 162.285156 142.324219 163.617188 143.523438 C 164.949219 144.722656 165.816406 146.421875 166.214844 148.625 C 166.550781 146.023438 167.382812 144.023438 168.714844 142.625 C 170.050781 141.191406 171.917969 140.472656 174.316406 140.472656 C 177.382812 140.472656 179.800781 141.640625 181.566406 143.972656 C 183.300781 146.308594 184.167969 149.605469 184.167969 153.875 L 184.167969 167.824219 L 149.167969 167.824219 Z M 163.566406 160.324219 L 163.566406 154.324219 C 163.566406 152.722656 163.183594 151.472656 162.417969 150.574219 C 161.648438 149.671875 160.617188 149.222656 159.316406 149.222656 C 158.015625 149.222656 156.984375 149.671875 156.214844 150.574219 C 155.449219 151.472656 155.066406 152.722656 155.066406 154.324219 L 155.066406 160.324219 Z M 178.214844 160.324219 L 178.214844 153.824219 C 178.214844 152.023438 177.832031 150.640625 177.066406 149.671875 C 176.300781 148.671875 175.234375 148.171875 173.867188 148.171875 C 172.433594 148.171875 171.332031 148.671875 170.566406 149.671875 C 169.765625 150.671875 169.367188 152.058594 169.367188 153.824219 L 169.367188 160.324219 Z M 178.214844 160.324219 "/>
<path style=" stroke:none;fill-rule:nonzero;fill:rgb(11.764706%,10.196079%,19.215687%);fill-opacity:1;" d="M 149.167969 139.839844 L 149.167969 112.140625 L 155.617188 112.140625 L 155.617188 122.242188 L 184.167969 122.242188 L 184.167969 129.742188 L 155.617188 129.742188 L 155.617188 139.839844 Z M 149.167969 139.839844 "/>
<path style=" stroke:none;fill-rule:nonzero;fill:rgb(11.764706%,10.196079%,19.215687%);fill-opacity:1;" d="M 166.667969 111.851562 C 163.101562 111.851562 159.984375 111.167969 157.316406 109.800781 C 154.617188 108.402344 152.535156 106.417969 151.066406 103.851562 C 149.601562 101.25 148.867188 98.199219 148.867188 94.699219 C 148.867188 91.96875 149.398438 89.515625 150.464844 87.351562 C 151.535156 85.183594 153.035156 83.433594 154.964844 82.101562 C 156.898438 80.765625 159.132812 79.96875 161.667969 79.699219 L 161.667969 87.199219 C 159.667969 87.632812 158.101562 88.550781 156.964844 89.949219 C 155.800781 91.316406 155.214844 93.035156 155.214844 95.101562 C 155.214844 97.902344 156.265625 100.117188 158.367188 101.75 C 160.464844 103.382812 163.234375 104.199219 166.667969 104.199219 C 170.066406 104.199219 172.832031 103.382812 174.964844 101.75 C 177.066406 100.117188 178.117188 97.902344 178.117188 95.101562 C 178.117188 93.035156 177.550781 91.316406 176.417969 89.949219 C 175.25 88.550781 173.667969 87.632812 171.667969 87.199219 L 171.667969 79.699219 C 174.199219 79.96875 176.433594 80.765625 178.367188 82.101562 C 180.300781 83.433594 181.800781 85.183594 182.867188 87.351562 C 183.933594 89.515625 184.464844 91.96875 184.464844 94.699219 C 184.464844 98.199219 183.734375 101.25 182.265625 103.851562 C 180.800781 106.417969 178.734375 108.402344 176.066406 109.800781 C 173.367188 111.167969 170.234375 111.851562 166.667969 111.851562 Z M 166.667969 111.851562 "/>
<use xlink:href="#surface5" mask="url(#mask0)"/>
<path style=" stroke:none;fill-rule:evenodd;fill:rgb(11.764706%,10.196079%,19.215687%);fill-opacity:1;" d="M 101.558594 118.625 L 105.050781 118.625 C 121.128906 118.625 134.167969 131.617188 134.167969 147.644531 C 134.167969 163.671875 121.128906 176.667969 105.050781 176.667969 L 62.230469 176.667969 C 58.695312 176.667969 55.832031 173.8125 55.832031 170.289062 C 55.832031 166.769531 58.695312 163.914062 62.230469 163.914062 L 105.050781 163.914062 C 114.066406 163.914062 121.375 156.632812 121.375 147.644531 C 121.375 138.660156 114.066406 131.375 105.050781 131.375 L 84.949219 131.375 C 68.871094 131.375 55.832031 118.382812 55.832031 102.355469 C 55.832031 86.328125 68.871094 73.332031 84.949219 73.332031 L 127.769531 73.332031 C 131.300781 73.332031 134.167969 76.1875 134.167969 79.707031 C 134.167969 83.230469 131.300781 86.085938 127.769531 86.085938 L 84.949219 86.085938 C 75.933594 86.085938 68.625 93.367188 68.625 102.355469 C 68.625 111.339844 75.933594 118.625 84.949219 118.625 L 101.554688 118.625 C 101.554688 118.625 101.554688 118.625 101.558594 118.625 Z M 101.558594 118.625 "/>
</g>
</svg>
